!!! OTL: Berkowitz306
!!! Chapter: 1
!!! Section: III
!!! Page: 74
!!! Mode: 
!!! Encoder: DJB
**kern
*staff1
*I"Piano
=1-
*clefG2
*k[f#c#]
*D:
*M3/4
4r
4r
8f#/L
8g/J
=2
4a/
4.dd\
8a#/
=3
4cc#\
4b\
8e/L
8f#/J
=4
4g/
4.cc#\
8b\
=5
2a/
8B/L
8c#/J
=6
4d/
4b\
4f#/
=7
4a/
4g/
4f#/
=8
4e/
4.f#/
8A/
=9
2d/
4r
==
*-
